assets/icons/24px/stroke/trash-with-lines-24px.svg

<svg width="24" height="24" viewBox="0 0 24 24" fill="none" xmlns="http://www.w3.org/2000/svg">
<path fill-rule="evenodd" clip-rule="evenodd" d="M4.86595 8.50902C5.41325 8.43499 5.91694 8.81865 5.99097 9.36595L7.07799 17.4021C7.19313 18.2534 7.26873 18.7982 7.3751 19.1972C7.47419 19.5689 7.56938 19.6867 7.64522 19.753C7.72106 19.8193 7.85061 19.8978 8.23222 19.9462C8.64184 19.9981 9.19194 20 10.0509 20H13.9491C14.8081 20 15.3581 19.9981 15.7678 19.9462C16.1494 19.8978 16.2789 19.8193 16.3548 19.753C16.4306 19.6867 16.5258 19.5689 16.6249 19.1972C16.7313 18.7982 16.8069 18.2534 16.922 17.4021L18.009 9.36595C18.0831 8.81865 18.5867 8.43499 19.134 8.50902C19.6813 8.58305 20.065 9.08674 19.991 9.63404L18.8959 17.73C18.7912 18.5041 18.7003 19.1764 18.5574 19.7124C18.4035 20.2895 18.1602 20.8313 17.6708 21.259C17.1813 21.6867 16.6118 21.8552 16.0193 21.9303C15.4689 22.0001 14.7906 22 14.0094 22H9.99062C9.20942 22 8.53107 22.0001 7.98068 21.9303C7.38816 21.8552 6.81866 21.6867 6.3292 21.259C5.83974 20.8313 5.59647 20.2895 5.4426 19.7124C5.29968 19.1764 5.20879 18.5041 5.10412 17.73L4.00902 9.63404C3.93499 9.08674 4.31865 8.58305 4.86595 8.50902Z" fill="white"/>
<path fill-rule="evenodd" clip-rule="evenodd" d="M11.968 2H12.032C12.4706 1.99999 12.8491 1.99998 13.1624 2.02135C13.4922 2.04386 13.8221 2.09336 14.1481 2.22836C14.8831 2.53284 15.4672 3.11687 15.7716 3.85195C15.9066 4.17788 15.9561 4.50779 15.9787 4.83762C16 5.15088 16 5.52936 16 5.96801L16 6H14C14 5.52038 13.9995 5.21074 13.9833 4.97376C13.9677 4.74576 13.9411 4.65893 13.9239 4.61732C13.8224 4.37229 13.6277 4.17762 13.3827 4.07612C13.3411 4.05888 13.2542 4.03227 13.0262 4.01671C12.7893 4.00054 12.4796 4 12 4C11.5204 4 11.2107 4.00054 10.9738 4.01671C10.7458 4.03227 10.6589 4.05888 10.6173 4.07612C10.3723 4.17762 10.1776 4.37229 10.0761 4.61732C10.0589 4.65893 10.0323 4.74576 10.0167 4.97376C10.0005 5.21074 10 5.52038 10 6H8L8 5.96802C7.99999 5.52937 7.99998 5.15088 8.02135 4.83762C8.04386 4.50779 8.09336 4.17788 8.22836 3.85195C8.53284 3.11687 9.11687 2.53284 9.85195 2.22836C10.1779 2.09336 10.5078 2.04386 10.8376 2.02135C11.1509 1.99998 11.5294 1.99999 11.968 2Z" fill="white"/>
<path fill-rule="evenodd" clip-rule="evenodd" d="M4 6C4 5.44772 4.44772 5 5 5L19 5C19.5523 5 20 5.44772 20 6C20 6.55228 19.5523 7 19 7L5 7C4.44772 7 4 6.55228 4 6Z" fill="white"/>
<path fill-rule="evenodd" clip-rule="evenodd" d="M9.43346 9.00219C9.98452 8.96545 10.461 9.3824 10.4978 9.93346L10.9978 17.4335C11.0345 17.9845 10.6176 18.461 10.0665 18.4978C9.51543 18.5345 9.03893 18.1176 9.00219 17.5665L8.50219 10.0665C8.46545 9.51543 8.8824 9.03893 9.43346 9.00219Z" fill="white"/>
<path fill-rule="evenodd" clip-rule="evenodd" d="M14.5665 9.00219C15.1176 9.03893 15.5345 9.51543 15.4978 10.0665L14.9978 17.5665C14.961 18.1176 14.4845 18.5345 13.9335 18.4978C13.3824 18.461 12.9655 17.9845 13.0022 17.4335L13.5022 9.93346C13.5389 9.3824 14.0154 8.96545 14.5665 9.00219Z" fill="white"/>
</svg>

<svg width="24" height="24" fill="none" xmlns="http://www.w3.org/2000/svg"><path fill-rule="evenodd" clip-rule="evenodd" d="M4.866 8.509a1 1 0 0 1 1.125.857l1.087 8.036c.115.851.19 1.396.297 1.795.1.372.194.49.27.556.076.066.206.145.587.193.41.052.96.054 1.819.054h3.898c.86 0 1.41-.002 1.819-.054.381-.048.51-.127.587-.193.076-.066.17-.184.27-.556.106-.399.182-.944.297-1.795l1.087-8.036a1 1 0 0 1 1.982.268l-1.095 8.096c-.105.774-.196 1.446-.339 1.982-.153.578-.397 1.12-.886 1.547-.49.428-1.06.596-1.652.671-.55.07-1.228.07-2.01.07H9.991c-.782 0-1.46 0-2.01-.07-.593-.075-1.162-.243-1.652-.671-.49-.428-.733-.97-.886-1.547-.143-.536-.234-1.208-.339-1.982L4.01 9.634a1 1 0 0 1 .857-1.125zM11.968 2h.064c.439 0 .817 0 1.13.021.33.023.66.072.986.207a3 3 0 0 1 1.624 1.624c.135.326.184.656.207.986.021.313.021.691.021 1.13V6h-2c0-.48 0-.79-.017-1.026-.015-.228-.042-.315-.06-.357a1 1 0 0 0-.54-.54c-.042-.018-.129-.045-.357-.06A16.908 16.908 0 0 0 12 4c-.48 0-.79 0-1.026.017-.228.015-.315.042-.357.06a1 1 0 0 0-.54.54c-.018.042-.045.129-.06.357C10 5.21 10 5.52 10 6H8v-.032c0-.439 0-.817.021-1.13.023-.33.072-.66.207-.986a3 3 0 0 1 1.624-1.624 3.07 3.07 0 0 1 .986-.207C11.15 2 11.529 2 11.968 2z" fill="#fff"/><path fill-rule="evenodd" clip-rule="evenodd" d="M4 6a1 1 0 0 1 1-1h14a1 1 0 1 1 0 2H5a1 1 0 0 1-1-1zm5.433 3.002a1 1 0 0 1 1.065.931l.5 7.5a1 1 0 0 1-1.996.134l-.5-7.5a1 1 0 0 1 .931-1.065zm5.133 0a1 1 0 0 1 .932 1.064l-.5 7.5a1 1 0 0 1-1.996-.133l.5-7.5a1 1 0 0 1 1.064-.93z" fill="#fff"/></svg>
